svg/u1f4c7.svg

<svg viewBox="0 0 128 128" xmlns="http://www.w3.org/2000/svg">
  <g>
    <g>
      <path d="M19.85,72.14c1.12,3.89-0.38,8.07-2.46,11.54 s-4.7,6.64-6.34,10.34c-4.7,10.65,0.1,23.57,2.02,24.14c2.04,0.6,21.17-13.64,21.17-13.64" fill="none" stroke="#616161" stroke-width="9.79" stroke-miterlimit="10"/>
      <path d="M21.91,75.21l-6.57-0.36c-0.05,2.3-1.48,5.22-1.48,5.22s2-1.36,6.15-0.21L21.91,75.21z" fill="#424242"/>
      <path d="M19.22,109.23c1.99-0.09,4.14,0.68,5.2,2.36c1.06,1.68,1.13,4,0.19,5.76l7.33-5.12 c0,0,0.06-2.08-1.57-4.08c-1.62-2-4.56-3.61-4.56-3.61L19.22,109.23z" fill="#424242"/>
      <path d="M38.11,61.44c0,8-9.78,14.48-17.78,14.48S9.14,69.43,9.14,61.44s3.19-14.48,11.18-14.48 S38.11,53.44,38.11,61.44z" fill="#616161"/>
      <path d="M19.47,53.08c-0.29,0.62-0.66,1.65-1.35,1.82c-1.69,0.42-4.63,0.3-5.5-0.17 c-1.3-0.7,0.36-2.8,0.94-3.52c0.55-0.69,1.17-1.38,1.97-1.77c2.36-1.14,4.76-1.07,6.13-0.9c0.43,0.06,0.62,0.59,0.3,0.89 C21.29,50.06,20.34,51.2,19.47,53.08z" fill="#82AEC0"/>
      <path d="M7.84,101.91c-0.37-0.2-0.68-0.54-0.86-0.93c-0.28-0.62-0.3-1.32-0.26-2 c0.1-1.7,2.6-10.55,5.35-9.22c1.68,0.81-0.02,3.74-0.29,4.82c-0.55,2.17-0.68,4.49-1.79,6.49c-0.3,0.54-0.83,0.98-1.44,1.01 C8.3,102.09,8.06,102.03,7.84,101.91z" fill="#82AEC0"/>
      <path d="M108.1,72.14c-1.12,3.89,0.38,8.07,2.46,11.54 s4.7,6.64,6.34,10.34c4.7,10.65-0.1,23.57-2.02,24.14c-2.04,0.6-21.17-13.64-21.17-13.64" fill="none" stroke="#616161" stroke-width="9.79" stroke-miterlimit="10"/>
      <path d="M106.04,75.21l6.57-0.36c0.05,2.3,1.48,5.22,1.48,5.22s-2-1.36-6.15-0.21L106.04,75.21z" fill="#424242"/>
      <path d="M108.73,109.23c-1.99-0.09-4.14,0.68-5.2,2.36c-1.06,1.68-1.13,4-0.19,5.76L96,112.24 c0,0-0.06-2.08,1.57-4.08c1.62-2,4.56-3.61,4.56-3.61L108.73,109.23z" fill="#424242"/>
      <path d="M89.84,61.44c0,8,9.78,14.48,17.78,14.48s11.18-6.48,11.18-14.48s-3.19-14.48-11.18-14.48 S89.84,53.44,89.84,61.44z" fill="#616161"/>
      <path d="M82.43,52.45c-8.6,0-26.62,0-36.92,0s-16.07-4.27-17.41-3.7c-4.57,1.94-6.47,6.89-6.47,12.69 c0,5.62,1.79,10.44,6.06,12.5c1.42,0.69,9.06-3.92,18.31-3.92s29.11,0,35.93,0c6.83,0,16.56,4.67,17.9,4.11 c4.57-1.94,6.47-6.89,6.47-12.69c0-5.75-1.88-10.67-6.37-12.64C98.58,48.2,91.03,52.45,82.43,52.45z" fill="#212121"/>
    </g>
    <g>
      <path d="M24.92,50.97V18.72c0-4.68,3.83-8.5,8.5-8.5h61.1c4.68,0,8.5,3.83,8.5,8.5v32.24 c0,4.68-3.83,8.5-8.5,8.5h-61.1C28.75,59.47,24.92,55.65,24.92,50.97z" fill="#B9E4EA"/>
      <g>
        <path d="M52.8,46.95H35.37c-0.85,0-1.54-0.69-1.54-1.54V21.36c0-0.85,0.69-1.54,1.54-1.54H52.8 c0.85,0,1.54,0.69,1.54,1.54v24.05C54.34,46.26,53.65,46.95,52.8,46.95z" fill="#FFFFFF"/>
        <g>
          <radialGradient id="SVGID_1_" cx="44.0873" cy="93.1207" gradientTransform="matrix(1 0 0 -1 0 128.1102)" gradientUnits="userSpaceOnUse" r="11.1114">
            <stop offset="0.1038" stop-color="#1E88E5"/>
            <stop offset="0.1531" stop-color="#1E88E5"/>
          </radialGradient>
          <path d="M54.28,46.16v0.8H33.9v-0.8c0-3.13,3.97-4.65,8.37-4.96v-0.22 c-1.85-0.56-3.51-1.95-4.33-4.25c-0.84-0.3-1.32-3.05-1.1-3.41c-0.16-1.16-1.26-10.23,7.24-10.29l0,0l0,0 c8.47,0.04,7.4,9.09,7.22,10.27c0.22,0.36-0.26,3.11-1.1,3.41c-0.8,2.29-2.45,3.71-4.31,4.27v0.2 C50.33,41.53,54.28,43.2,54.28,46.16z" fill="url(#SVGID_1_)"/>
        </g>
      </g>
      <path d="M78.22,23.03H61.23c-0.82,0-1.48-0.66-1.48-1.48v-0.24c0-0.82,0.66-1.48,1.48-1.48h16.99 c0.82,0,1.48,0.66,1.48,1.48v0.24C79.7,22.36,79.03,23.03,78.22,23.03z" fill="#82AEC0"/>
      <path d="M84.22,31H61.23c-0.82,0-1.48-0.66-1.48-1.48v-0.24c0-0.82,0.66-1.48,1.48-1.48h22.99 c0.82,0,1.48,0.66,1.48,1.48v0.24C85.7,30.34,85.04,31,84.22,31z" fill="#82AEC0"/>
      <path d="M75.63,38.98H61.23c-0.82,0-1.48-0.66-1.48-1.48v-0.24c0-0.82,0.66-1.48,1.48-1.48h14.41 c0.82,0,1.48,0.66,1.48,1.48v0.24C77.11,38.31,76.45,38.98,75.63,38.98z" fill="#82AEC0"/>
      <path d="M71.78,46.95H61.23c-0.82,0-1.48-0.66-1.48-1.48v-0.24c0-0.82,0.66-1.48,1.48-1.48h10.55 c0.82,0,1.48,0.66,1.48,1.48v0.24C73.26,46.29,72.6,46.95,71.78,46.95z" fill="#82AEC0"/>
    </g>
    <g>
      <path d="M105.19,96.82H22.76c-0.59,2.1-0.59,4.3,1.1,6.02c0.54,0.56,1.68,1.62,1.68,1.62 s0.48,1.93,1.51,3.14c1.59,1.86,4.13,2.31,4.13,2.31s0.48,1.54,1.16,2.48c0.99,1.39,2.93,1.68,4.64,1.69c0.03,0,0.07,0,0.1,0 c1.26,0,52.53,0,53.8,0c0.03,0,0.07,0,0.1,0c1.71-0.01,3.65-0.29,4.64-1.69c0.68-0.95,1.16-2.48,1.16-2.48s2.53-0.45,4.13-2.31 c1.03-1.2,1.51-3.14,1.51-3.14s1.13-1.06,1.68-1.62C105.78,101.12,105.78,98.92,105.19,96.82z" fill="#B9E4EA"/>
      <path d="M105.29,96.34l-0.63-1.76H23.29l-0.63,1.76c-0.9,3.23,2.73,4.22,7,4.22h68.63 C102.55,100.56,106.19,99.58,105.29,96.34z" fill="#82AEC0"/>
      <path d="M108.14,91.67l-2.05-4.19H21.86l-2.05,4.19c-0.97,3.23,2.5,3.97,7.08,3.97h74.18 C105.64,95.65,109.11,94.91,108.14,91.67z" fill="#B9E4EA"/>
      <path d="M111.17,83.57l-9.91-16.85c-1.49-1.95-3.8-3.09-6.25-3.09H63.97H32.94c-2.45,0-4.76,1.14-6.25,3.09 l-9.91,16.85c-1.48,3.82,3.28,5.04,7.38,5.08h79.63C107.89,88.61,112.65,87.39,111.17,83.57z" fill="#FFFFFF"/>
      <path d="M105.43,100.18c-0.05-0.02-0.12,0.12-0.12,0.12c-1.24,2.79-6.35,2.87-6.38,2.86h-69.9 c-0.03,0.01-5.14-0.07-6.38-2.86c0,0-0.06-0.14-0.12-0.12c-0.03,0.01,0,0.18,0,0.18c1.03,4.16,4.06,4.87,6.55,4.87 c0.83,0,68.97,0,69.8,0c2.49,0,5.52-0.71,6.55-4.87C105.43,100.36,105.46,100.19,105.43,100.18z" fill="#82AEC0"/>
      <path d="M101.57,106.27c-0.2-0.09-0.35,0.08-0.35,0.08S99.34,108,94.88,108H33.07 c-4.46,0-6.34-1.66-6.34-1.66s-0.15-0.17-0.35-0.08c-0.2,0.09,0.37,0.98,0.67,1.33c1.59,1.86,4.13,2.31,4.13,2.31s0,0,0,0 c0.57,0.1,1.2,0.16,1.89,0.16h61.81c0.7,0,1.32-0.06,1.89-0.16c0,0,0,0,0,0s2.53-0.45,4.13-2.31 C101.2,107.25,101.77,106.36,101.57,106.27z" opacity="0.75" fill="#2F7889"/>
      <path d="M96.38,110.95c-0.07-0.05-0.58,0.63-0.58,0.63c-1.03,0.99-1.76,1.46-6.49,1.46H38.64 c-4.73,0-5.46-0.47-6.49-1.46c0,0-0.51-0.69-0.58-0.63c-0.07,0.05,0.22,0.74,0.22,0.74c0.14,0.3,0.93,3.42,7.53,3.42h49.31 c6.6,0,7.39-3.12,7.53-3.42C96.16,111.69,96.45,111,96.38,110.95z" fill="#2F7889"/>
    </g>
    <path d="M83.5,63.41c-0.36,0.74-0.55,1.56-0.56,2.38c0,0.29,0.03,0.61,0.24,0.81 c0.13,0.12,0.3,0.18,0.47,0.22c0.8,0.18,1.63-0.01,2.4-0.29c1.65-0.6,3.14-1.64,4.27-2.99" fill="#B9E4EA"/>
    <path d="M46.07,63.46c-0.72,0.99-1.16,2.19-1.24,3.41c0.98,0.55,2.21,0.16,3.21-0.35 c1.47-0.74,2.83-1.72,4-2.88" fill="#B9E4EA"/>
    <g>
      <path d="M44.76,66.94L44.76,66.94c-1.72,0-3.11-1.39-3.11-3.11v-5.71c0-1.72,1.39-3.11,3.11-3.11h0 c1.72,0,3.11,1.39,3.11,3.11v5.71C47.87,65.55,46.48,66.94,44.76,66.94z" fill="#616161"/>
      <path d="M83.19,66.94L83.19,66.94c-1.72,0-3.11-1.39-3.11-3.11v-5.71c0-1.72,1.39-3.11,3.11-3.11h0 c1.72,0,3.11,1.39,3.11,3.11v5.71C86.3,65.55,84.91,66.94,83.19,66.94z" fill="#616161"/>
    </g>
  </g>
</svg>

<svg viewBox="0 0 128 128" xmlns="http://www.w3.org/2000/svg">
  <defs>
    <radialGradient id="SVGID_1_" cx="44.0873" cy="-34.9895" gradientTransform="matrix(1 0 0 -1 0 0)" gradientUnits="userSpaceOnUse" r="11.1114">
      <stop offset="0.1038" stop-color="#1E88E5"/>
      <stop offset="0.1531" stop-color="#1E88E5"/>
    </radialGradient>
  </defs>
  <path d="M24.554,70.786 Q26.589,77.854 21.588,86.197 Q20.778,87.549 19.081,90.06 Q16.404,94.021 15.525,96.004 Q13.039,101.636 14.392,108.984 Q14.68,110.551 15.088,111.861 Q17.634,110.306 21.586,107.574 Q26.536,104.15 31.317,100.593 L37.163,108.447 L37.161,108.448 Q16.065,124.143 11.677,122.853 Q6.719,121.381 4.763,110.756 Q2.865,100.442 6.575,92.036 Q7.806,89.26 10.97,84.578 Q12.517,82.288 13.192,81.163 Q16.003,76.472 15.146,73.494 Z" fill="#616161"/>
  <path d="M21.91,75.21 L15.34,74.85 C15.29,77.15 13.86,80.07 13.86,80.07 C13.86,80.07 15.86,78.71 20.01,79.86 L21.91,75.21 Z" fill="#424242"/>
  <path d="M19.22,109.23 C21.21,109.14 23.36,109.91 24.42,111.59 C25.48,113.27 25.55,115.59 24.61,117.35 L31.94,112.23 C31.94,112.23 32,110.15 30.37,108.15 C28.75,106.15 25.81,104.54 25.81,104.54 L19.22,109.23 Z" fill="#424242"/>
  <path d="M38.11,61.44 C38.11,69.44 28.33,75.92 20.33,75.92 C12.33,75.92 9.14,69.43 9.14,61.44 C9.14,53.45 12.33,46.96 20.32,46.96 C28.31,46.96 38.11,53.44 38.11,61.44 Z" fill="#616161"/>
  <path d="M19.47,53.08 C19.18,53.7 18.81,54.73 18.12,54.9 C16.43,55.32 13.49,55.2 12.62,54.73 C11.32,54.03 12.98,51.93 13.56,51.21 C14.11,50.52 14.73,49.83 15.53,49.44 C17.89,48.3 20.29,48.37 21.66,48.54 C22.09,48.6 22.28,49.13 21.96,49.43 C21.29,50.06 20.34,51.2 19.47,53.08 Z" fill="#82AEC0"/>
  <path d="M7.84,101.91 C7.47,101.71 7.16,101.37 6.98,100.98 C6.7,100.36 6.68,99.66 6.72,98.98 C6.82,97.28 9.32,88.43 12.07,89.76 C13.75,90.57 12.05,93.5 11.78,94.58 C11.23,96.75 11.1,99.07 9.99,101.07 C9.69,101.61 9.16,102.05 8.55,102.08 C8.3,102.09 8.06,102.03 7.84,101.91 Z" fill="#82AEC0"/>
  <path d="M112.804,73.494 Q111.947,76.472 114.758,81.163 Q115.433,82.288 116.98,84.578 Q120.144,89.26 121.375,92.036 Q125.085,100.442 123.187,110.756 Q121.231,121.381 116.273,122.853 Q111.886,124.143 90.789,108.448 L90.787,108.447 L96.633,100.593 Q101.424,104.158 106.374,107.58 Q110.319,110.308 112.862,111.861 Q113.27,110.551 113.558,108.984 Q114.911,101.636 112.425,96.004 Q111.546,94.022 108.869,90.06 Q107.172,87.549 106.361,86.197 Q101.361,77.854 103.396,70.786 Z" fill="#616161"/>
  <path d="M106.04,75.21 L112.61,74.85 C112.66,77.15 114.09,80.07 114.09,80.07 C114.09,80.07 112.09,78.71 107.94,79.86 L106.04,75.21 Z" fill="#424242"/>
  <path d="M108.73,109.23 C106.74,109.14 104.59,109.91 103.53,111.59 C102.47,113.27 102.4,115.59 103.34,117.35 L96,112.24 C96,112.24 95.94,110.16 97.57,108.16 C99.19,106.16 102.13,104.55 102.13,104.55 L108.73,109.23 Z" fill="#424242"/>
  <path d="M89.84,61.44 C89.84,69.44 99.62,75.92 107.62,75.92 C115.62,75.92 118.8,69.44 118.8,61.44 C118.8,53.44 115.61,46.96 107.62,46.96 C99.63,46.96 89.84,53.44 89.84,61.44 Z" fill="#616161"/>
  <path d="M82.43,52.45 C73.83,52.45 55.81,52.45 45.51,52.45 C35.21,52.45 29.44,48.18 28.1,48.75 C23.53,50.69 21.63,55.64 21.63,61.44 C21.63,67.06 23.42,71.88 27.69,73.94 C29.11,74.63 36.75,70.02 46,70.02 C55.25,70.02 75.11,70.02 81.93,70.02 C88.76,70.02 98.49,74.69 99.83,74.13 C104.4,72.19 106.3,67.24 106.3,61.44 C106.3,55.69 104.42,50.77 99.93,48.8 C98.58,48.2 91.03,52.45 82.43,52.45 Z" fill="#212121"/>
  <path d="M24.92,50.97 L24.92,18.72 C24.92,14.04 28.75,10.22 33.42,10.22 L94.52,10.22 C99.2,10.22 103.02,14.05 103.02,18.72 L103.02,50.96 C103.02,55.64 99.19,59.46 94.52,59.46 L33.42,59.46 C28.75,59.47 24.92,55.65 24.92,50.97 Z" fill="#B9E4EA"/>
  <path d="M52.8,46.95 L35.37,46.95 C34.52,46.95 33.83,46.26 33.83,45.41 L33.83,21.36 C33.83,20.51 34.52,19.82 35.37,19.82 L52.8,19.82 C53.65,19.82 54.34,20.51 54.34,21.36 L54.34,45.41 C54.34,46.26 53.65,46.95 52.8,46.95 Z" fill="#FFFFFF"/>
  <path d="M54.28,46.16 L54.28,46.96 L33.9,46.96 L33.9,46.16 C33.9,43.03 37.87,41.51 42.27,41.2 L42.27,40.98 C40.42,40.42 38.76,39.03 37.94,36.73 C37.1,36.43 36.62,33.68 36.84,33.32 C36.68,32.16 35.58,23.09 44.08,23.03 L44.08,23.03 L44.08,23.03 C52.55,23.07 51.48,32.12 51.3,33.3 C51.52,33.66 51.04,36.41 50.2,36.71 C49.4,39 47.75,40.42 45.89,40.98 L45.89,41.18 C50.33,41.53 54.28,43.2 54.28,46.16 Z" fill="url(#SVGID_1_)"/>
  <path d="M78.22,23.03 L61.23,23.03 C60.41,23.03 59.75,22.37 59.75,21.55 L59.75,21.31 C59.75,20.49 60.41,19.83 61.23,19.83 L78.22,19.83 C79.04,19.83 79.7,20.49 79.7,21.31 L79.7,21.55 C79.7,22.36 79.03,23.03 78.22,23.03 Z" fill="#82AEC0"/>
  <path d="M84.22,31 L61.23,31 C60.41,31 59.75,30.34 59.75,29.52 L59.75,29.28 C59.75,28.46 60.41,27.8 61.23,27.8 L84.22,27.8 C85.04,27.8 85.7,28.46 85.7,29.28 L85.7,29.52 C85.7,30.34 85.04,31 84.22,31 Z" fill="#82AEC0"/>
  <path d="M75.63,38.98 L61.23,38.98 C60.41,38.98 59.75,38.32 59.75,37.5 L59.75,37.26 C59.75,36.44 60.41,35.78 61.23,35.78 L75.64,35.78 C76.46,35.78 77.12,36.44 77.12,37.26 L77.12,37.5 C77.11,38.31 76.45,38.98 75.63,38.98 Z" fill="#82AEC0"/>
  <path d="M71.78,46.95 L61.23,46.95 C60.41,46.95 59.75,46.29 59.75,45.47 L59.75,45.23 C59.75,44.41 60.41,43.75 61.23,43.75 L71.78,43.75 C72.6,43.75 73.26,44.41 73.26,45.23 L73.26,45.47 C73.26,46.29 72.6,46.95 71.78,46.95 Z" fill="#82AEC0"/>
  <path d="M105.19,96.82 L22.76,96.82 C22.17,98.92 22.17,101.12 23.86,102.84 C24.4,103.4 25.54,104.46 25.54,104.46 C25.54,104.46 26.02,106.39 27.05,107.6 C28.64,109.46 31.18,109.91 31.18,109.91 C31.18,109.91 31.66,111.45 32.34,112.39 C33.33,113.78 35.27,114.07 36.98,114.08 C37.01,114.08 37.05,114.08 37.08,114.08 C38.34,114.08 89.61,114.08 90.88,114.08 C90.91,114.08 90.95,114.08 90.98,114.08 C92.69,114.07 94.63,113.79 95.62,112.39 C96.3,111.44 96.78,109.91 96.78,109.91 C96.78,109.91 99.31,109.46 100.91,107.6 C101.94,106.4 102.42,104.46 102.42,104.46 C102.42,104.46 103.55,103.4 104.1,102.84 C105.78,101.12 105.78,98.92 105.19,96.82 Z" fill="#B9E4EA"/>
  <path d="M105.29,96.34 L104.66,94.58 L23.29,94.58 L22.66,96.34 C21.76,99.57 25.39,100.56 29.66,100.56 L98.29,100.56 C102.55,100.56 106.19,99.58 105.29,96.34 Z" fill="#82AEC0"/>
  <path d="M108.14,91.67 L106.09,87.48 L21.86,87.48 L19.81,91.67 C18.84,94.9 22.31,95.64 26.89,95.64 L101.07,95.64 C105.64,95.65 109.11,94.91 108.14,91.67 Z" fill="#B9E4EA"/>
  <path d="M111.17,83.57 L101.26,66.72 C99.77,64.77 97.46,63.63 95.01,63.63 L63.97,63.63 L32.94,63.63 C30.49,63.63 28.18,64.77 26.69,66.72 L16.78,83.57 C15.3,87.39 20.06,88.61 24.16,88.65 L103.79,88.65 C107.89,88.61 112.65,87.39 111.17,83.57 Z" fill="#FFFFFF"/>
  <path d="M105.43,100.18 C105.38,100.16 105.31,100.3 105.31,100.3 C104.07,103.09 98.96,103.17 98.93,103.16 L29.03,103.16 C29,103.17 23.89,103.09 22.65,100.3 C22.65,100.3 22.59,100.16 22.53,100.18 C22.5,100.19 22.53,100.36 22.53,100.36 C23.56,104.52 26.59,105.23 29.08,105.23 C29.91,105.23 98.05,105.23 98.88,105.23 C101.37,105.23 104.4,104.52 105.43,100.36 C105.43,100.36 105.46,100.19 105.43,100.18 Z" fill="#82AEC0"/>
  <path d="M101.57,106.27 C101.37,106.18 101.22,106.35 101.22,106.35 C101.22,106.35 99.34,108 94.88,108 L33.07,108 C28.61,108 26.73,106.34 26.73,106.34 C26.73,106.34 26.58,106.17 26.38,106.26 C26.18,106.35 26.75,107.24 27.05,107.59 C28.64,109.45 31.18,109.9 31.18,109.9 C31.18,109.9 31.18,109.9 31.18,109.9 C31.75,110 32.38,110.06 33.07,110.06 L94.88,110.06 C95.58,110.06 96.2,110 96.77,109.9 C96.77,109.9 96.77,109.9 96.77,109.9 C96.77,109.9 99.3,109.45 100.9,107.59 C101.2,107.25 101.77,106.36 101.57,106.27 Z" fill="#2F7889" opacity="0.75"/>
  <path d="M96.38,110.95 C96.31,110.9 95.8,111.58 95.8,111.58 C94.77,112.57 94.04,113.04 89.31,113.04 L38.64,113.04 C33.91,113.04 33.18,112.57 32.15,111.58 C32.15,111.58 31.64,110.89 31.57,110.95 C31.5,111 31.79,111.69 31.79,111.69 C31.93,111.99 32.72,115.11 39.32,115.11 L88.63,115.11 C95.23,115.11 96.02,111.99 96.16,111.69 C96.16,111.69 96.45,111 96.38,110.95 Z" fill="#2F7889"/>
  <path d="M83.5,63.41 C83.14,64.15 82.95,64.97 82.94,65.79 C82.94,66.08 82.97,66.4 83.18,66.6 C83.31,66.72 83.48,66.78 83.65,66.82 C84.45,67 85.28,66.81 86.05,66.53 C87.7,65.93 89.19,64.89 90.32,63.54" fill="#B9E4EA"/>
  <path d="M46.07,63.46 C45.35,64.45 44.91,65.65 44.83,66.87 C45.81,67.42 47.04,67.03 48.04,66.52 C49.51,65.78 50.87,64.8 52.04,63.64" fill="#B9E4EA"/>
  <path d="M44.76,66.94 L44.76,66.94 C43.04,66.94 41.65,65.55 41.65,63.83 L41.65,58.12 C41.65,56.4 43.04,55.01 44.76,55.01 L44.76,55.01 C46.48,55.01 47.87,56.4 47.87,58.12 L47.87,63.83 C47.87,65.55 46.48,66.94 44.76,66.94 Z" fill="#616161"/>
  <path d="M83.19,66.94 L83.19,66.94 C81.47,66.94 80.08,65.55 80.08,63.83 L80.08,58.12 C80.08,56.4 81.47,55.01 83.19,55.01 L83.19,55.01 C84.91,55.01 86.3,56.4 86.3,58.12 L86.3,63.83 C86.3,65.55 84.91,66.94 83.19,66.94 Z" fill="#616161"/>
</svg>
